build/images/vector/ng.svg

<svg width="177" height="53" viewBox="0 0 177 53" xmlns="http://www.w3.org/2000/svg"><title>Imported Layers</title><g fill="#000" fill-rule="evenodd"><path d="M.504.56H36.54v51.636H.504V.56zm5.194 46.436h25.63V5.76H5.698v41.236zM60.477 23.727h-2.23c-2.927-4.136-5.83-8.245-8.73-12.89h-.022v12.89H47.03V5.753h2.232c2.928 4.107 5.827 8.188 8.7 12.81h.053V5.752h2.463v17.974M66.334 16.613c.715-2.363 1.435-4.545 2.078-7.32h.052c.718 2.775 1.36 4.958 2.028 7.32h-4.158zm1.178-10.86l-6.21 17.974h2.67l1.562-4.905h5.422l1.41 4.905h3.443L70.08 5.753h-2.568zM78.708 23.727V8.163h-4.726v-2.41h12.53v2.41h-4.723v15.564h-3.082M87.51 5.753h3.06v17.974h-3.06V5.753zM100.07 21.463c-3.214 0-4.34-3.542-4.34-6.984 0-3.312 1.28-6.47 4.34-6.47 3.055 0 4.334 3.158 4.334 6.47 0 3.44-1.127 6.983-4.333 6.983zm0 2.568c4.698 0 7.623-4.182 7.623-9.55 0-5.032-3.23-9.037-7.622-9.037-4.388 0-7.634 4.005-7.634 9.036 0 5.368 2.934 9.55 7.635 9.55zM123.02 23.727h-2.232c-2.928-4.136-5.832-8.245-8.73-12.89h-.025v12.89h-2.46V5.753h2.23c2.926 4.107 5.827 8.188 8.697 12.81h.055V5.752h2.466v17.974M128.875 16.613c.72-2.363 1.435-4.545 2.08-7.32h.053c.72 2.775 1.36 4.958 2.026 7.32h-4.16zm1.183-10.86l-6.213 17.974h2.673l1.563-4.905h5.42l1.412 4.905h3.44l-5.726-17.974h-2.568zM139.245 5.753h3.06v15.56h6.084v2.414h-9.145V5.753M58.583 38.76v7.42c-1.644.643-3.365 1.103-5.106 1.103-5.29 0-8.628-4.108-8.628-9.397 0-4.906 3.336-9.192 8.728-9.192 1.666 0 3.336.62 4.363 1.388l-1 2.13c-.82-.51-2.107-.945-3.286-.945-3.284 0-5.52 2.593-5.52 6.677 0 4.26 2.57 6.773 5.214 6.773.817 0 1.515-.1 2.16-.435v-5.52h3.075v-.002M69.603 31.42h-5.14v4.926h5.03v2.414h-5.03v5.8h6.058v2.417h-9.14V29.002h8.223v2.418M79.102 44.715c-3.213 0-4.344-3.54-4.344-6.984 0-3.308 1.284-6.465 4.344-6.465 3.053 0 4.334 3.157 4.334 6.466 0 3.444-1.132 6.985-4.334 6.985zm0 2.567c4.696 0 7.62-4.184 7.62-9.552 0-5.03-3.232-9.038-7.62-9.038-4.396 0-7.628 4.007-7.628 9.038 0 5.37 2.922 9.552 7.628 9.552zM101.51 38.76v7.42c-1.646.643-3.36 1.103-5.11 1.103-5.287 0-8.626-4.108-8.626-9.397 0-4.906 3.34-9.192 8.732-9.192 1.67 0 3.336.62 4.36 1.388l-1.002 2.13c-.82-.51-2.097-.945-3.28-.945-3.29 0-5.525 2.593-5.525 6.677 0 4.26 2.57 6.773 5.214 6.773.824 0 1.514-.1 2.158-.435v-5.52h3.078v-.002M107.422 31.42h1.357c1.817 0 2.847 1.048 2.847 2.898 0 2.412-1.46 3.49-2.927 3.566-.308.03-1.027.057-1.278.08V31.42zm7.803 15.557l-3.628-7.444c1.98-1.05 3.113-3.187 3.113-5.343 0-3.495-2.134-5.188-5.576-5.188h-4.8v17.975h3.088v-6.78h1.385l2.896 6.78h3.522zM120.306 39.863c.717-2.365 1.436-4.545 2.08-7.318h.052c.718 2.773 1.358 4.953 2.027 7.318h-4.16zm1.18-10.86l-6.215 17.974h2.67l1.57-4.906h5.42l1.404 4.907h3.445l-5.73-17.975h-2.565zM135.554 29.002h-4.8v17.975h3.082v-6.78h1.383c3.673 0 5.908-2.978 5.908-6.007 0-3.496-2.132-5.188-5.574-5.188zm-.43 8.883c-.32.028-1.074.053-1.288.074v-6.54h1.383c1.796 0 2.826 1.048 2.826 2.898 0 2.412-1.46 3.49-2.923 3.567zM155.403 46.977h-3.082v-8.65h-6.397v8.65h-3.046V29.002h3.046v6.907h6.398v-6.857h3.083v17.924M158.352 29.002h3.06v17.975h-3.06V29.002zM175.274 32.265c-.746-.463-1.974-1-3.16-1-3.138 0-5.415 2.593-5.415 6.677 0 4.26 2.514 6.773 5.493 6.773a5.82 5.82 0 0 0 3.08-.9l.85 2.236c-.93.642-2.568 1.232-4.056 1.232-5.29 0-8.63-4.108-8.63-9.397 0-4.906 3.31-9.192 8.677-9.192 1.595 0 3.08.67 4.138 1.388l-.978 2.185"/></g></svg>

<?xml version="1.0" encoding="UTF-8" standalone="no"?>
<svg width="177px" height="53px" viewBox="0 0 177 53" version="1.1" xmlns="http://www.w3.org/2000/svg" xmlns:xlink="http://www.w3.org/1999/xlink" xmlns:sketch="http://www.bohemiancoding.com/sketch/ns">
    <!-- Generator: Sketch 3.2.2 (9983) - http://www.bohemiancoding.com/sketch -->
    <title>Imported Layers</title>
    <desc>Created with Sketch.</desc>
    <defs></defs>
    <g id="Page-1" stroke="none" stroke-width="1" fill="none" fill-rule="evenodd" sketch:type="MSPage">
        <g id="Imported-Layers" sketch:type="MSLayerGroup" fill="#000000">
            <path d="M0.504,0.561 L36.54,0.561 L36.54,52.196 L0.504,52.196 L0.504,0.561 Z M5.698,46.996 L31.328,46.996 L31.328,5.761 L5.698,5.761 L5.698,46.996 Z" id="Fill-2" sketch:type="MSShapeGroup"></path>
            <path d="M60.477,23.727 L58.248,23.727 C55.32,19.591 52.416,15.482 49.516,10.836 L49.495,10.836 L49.495,23.727 L47.031,23.727 L47.031,5.753 L49.262,5.753 C52.19,9.86 55.089,13.941 57.963,18.562 L58.015,18.562 L58.015,5.753 L60.478,5.753 L60.478,23.727 L60.477,23.727" id="Fill-3" sketch:type="MSShapeGroup"></path>
            <path d="M66.334,16.613 C67.049,14.25 67.769,12.068 68.412,9.294 L68.464,9.294 C69.182,12.068 69.825,14.251 70.492,16.613 L66.334,16.613 L66.334,16.613 Z M67.512,5.753 L61.302,23.727 L63.971,23.727 L65.534,18.822 L70.956,18.822 L72.367,23.727 L75.809,23.727 L70.081,5.753 L67.512,5.753 L67.512,5.753 Z" id="Fill-4" sketch:type="MSShapeGroup"></path>
            <path d="M78.708,23.727 L78.708,8.163 L73.982,8.163 L73.982,5.753 L86.511,5.753 L86.511,8.163 L81.789,8.163 L81.789,23.727 L78.708,23.727" id="Fill-5" sketch:type="MSShapeGroup"></path>
            <path d="M87.511,5.753 L90.569,5.753 L90.569,23.727 L87.511,23.727 L87.511,5.753 Z" id="Fill-6" sketch:type="MSShapeGroup"></path>
            <path d="M100.071,21.463 C96.856,21.463 95.729,17.921 95.729,14.479 C95.729,11.168 97.011,8.009 100.071,8.009 C103.125,8.009 104.404,11.168 104.404,14.479 C104.404,17.921 103.277,21.463 100.071,21.463 L100.071,21.463 Z M100.071,24.031 C104.768,24.031 107.693,19.848 107.693,14.479 C107.693,9.448 104.463,5.443 100.071,5.443 C95.682,5.443 92.436,9.448 92.436,14.479 C92.437,19.848 95.37,24.031 100.071,24.031 L100.071,24.031 Z" id="Fill-7" sketch:type="MSShapeGroup"></path>
            <path d="M123.021,23.727 L120.788,23.727 C117.86,19.591 114.956,15.482 112.059,10.836 L112.033,10.836 L112.033,23.727 L109.572,23.727 L109.572,5.753 L111.803,5.753 C114.729,9.86 117.63,13.941 120.5,18.562 L120.555,18.562 L120.555,5.753 L123.021,5.753 L123.021,23.727" id="Fill-8" sketch:type="MSShapeGroup"></path>
            <path d="M128.875,16.613 C129.596,14.25 130.31,12.068 130.956,9.294 L131.008,9.294 C131.728,12.068 132.367,14.251 133.034,16.613 L128.875,16.613 L128.875,16.613 Z M130.058,5.753 L123.845,23.727 L126.518,23.727 L128.081,18.822 L133.5,18.822 L134.912,23.727 L138.353,23.727 L132.626,5.753 L130.058,5.753 L130.058,5.753 Z" id="Fill-9" sketch:type="MSShapeGroup"></path>
            <path d="M139.245,5.753 L142.306,5.753 L142.306,21.312 L148.389,21.312 L148.389,23.727 L139.245,23.727 L139.245,5.753" id="Fill-10" sketch:type="MSShapeGroup"></path>
            <path d="M58.583,38.76 L58.583,46.179 C56.939,46.823 55.218,47.283 53.477,47.283 C48.186,47.283 44.849,43.175 44.849,37.886 C44.849,32.98 48.186,28.694 53.578,28.694 C55.244,28.694 56.914,29.313 57.941,30.082 L56.94,32.213 C56.12,31.703 54.833,31.267 53.654,31.267 C50.37,31.267 48.134,33.86 48.134,37.944 C48.134,42.203 50.703,44.717 53.348,44.717 C54.165,44.717 54.863,44.618 55.508,44.282 L55.508,38.761 L58.583,38.761 L58.583,38.76" id="Fill-11" sketch:type="MSShapeGroup"></path>
            <path d="M69.603,31.42 L64.462,31.42 L64.462,36.346 L69.494,36.346 L69.494,38.76 L64.462,38.76 L64.462,44.56 L70.521,44.56 L70.521,46.977 L61.379,46.977 L61.379,29.002 L69.603,29.002 L69.603,31.42" id="Fill-12" sketch:type="MSShapeGroup"></path>
            <path d="M79.102,44.715 C75.889,44.715 74.758,41.174 74.758,37.731 C74.758,34.422 76.042,31.265 79.102,31.265 C82.155,31.265 83.436,34.422 83.436,37.731 C83.436,41.174 82.304,44.715 79.102,44.715 L79.102,44.715 Z M79.102,47.282 C83.798,47.282 86.723,43.098 86.723,37.73 C86.723,32.699 83.49,28.692 79.102,28.692 C74.706,28.692 71.474,32.699 71.474,37.73 C71.474,43.099 74.396,47.282 79.102,47.282 L79.102,47.282 Z" id="Fill-13" sketch:type="MSShapeGroup"></path>
            <path d="M101.51,38.76 L101.51,46.179 C99.864,46.823 98.149,47.283 96.4,47.283 C91.113,47.283 87.774,43.175 87.774,37.886 C87.774,32.98 91.113,28.694 96.506,28.694 C98.176,28.694 99.842,29.313 100.866,30.082 L99.864,32.213 C99.044,31.703 97.767,31.267 96.584,31.267 C93.294,31.267 91.059,33.86 91.059,37.944 C91.059,42.203 93.629,44.717 96.274,44.717 C97.098,44.717 97.788,44.618 98.432,44.282 L98.432,38.761 L101.51,38.761 L101.51,38.76" id="Fill-14" sketch:type="MSShapeGroup"></path>
            <path d="M107.422,31.42 L108.779,31.42 C110.597,31.42 111.627,32.468 111.627,34.318 C111.627,36.73 110.166,37.807 108.7,37.884 C108.392,37.915 107.673,37.941 107.422,37.963 L107.422,31.42 L107.422,31.42 Z M115.225,46.977 L111.597,39.533 C113.576,38.484 114.71,36.346 114.71,34.19 C114.71,30.695 112.576,29.002 109.134,29.002 L104.334,29.002 L104.334,46.977 L107.422,46.977 L107.422,40.198 L108.807,40.198 L111.703,46.977 L115.225,46.977 L115.225,46.977 Z" id="Fill-15" sketch:type="MSShapeGroup"></path>
            <path d="M120.306,39.863 C121.023,37.498 121.742,35.318 122.386,32.545 L122.438,32.545 C123.156,35.318 123.796,37.498 124.465,39.863 L120.306,39.863 L120.306,39.863 Z M121.485,29.002 L115.271,46.977 L117.941,46.977 L119.509,42.071 L124.929,42.071 L126.334,46.977 L129.779,46.977 L124.05,29.002 L121.485,29.002 L121.485,29.002 Z" id="Fill-16" sketch:type="MSShapeGroup"></path>
            <path d="M135.554,29.002 L130.755,29.002 L130.755,46.977 L133.836,46.977 L133.836,40.198 L135.219,40.198 C138.893,40.198 141.128,37.219 141.128,34.19 C141.128,30.694 138.996,29.002 135.554,29.002 L135.554,29.002 Z M135.123,37.885 C134.803,37.913 134.05,37.938 133.836,37.959 L133.836,31.42 L135.219,31.42 C137.016,31.42 138.046,32.468 138.046,34.318 C138.046,36.73 136.587,37.808 135.123,37.885 L135.123,37.885 Z" id="Fill-17" sketch:type="MSShapeGroup"></path>
            <path d="M155.403,46.977 L152.321,46.977 L152.321,38.326 L145.923,38.326 L145.923,46.977 L142.877,46.977 L142.877,29.002 L145.923,29.002 L145.923,35.909 L152.321,35.909 L152.321,29.053 L155.403,29.053 L155.403,46.977" id="Fill-18" sketch:type="MSShapeGroup"></path>
            <path d="M158.352,29.002 L161.413,29.002 L161.413,46.977 L158.352,46.977 L158.352,29.002 Z" id="Fill-19" sketch:type="MSShapeGroup"></path>
            <path d="M175.274,32.265 C174.528,31.802 173.3,31.265 172.114,31.265 C168.976,31.265 166.699,33.858 166.699,37.942 C166.699,42.201 169.214,44.715 172.193,44.715 C173.375,44.715 174.476,44.328 175.274,43.815 L176.123,46.051 C175.193,46.692 173.555,47.282 172.067,47.282 C166.777,47.282 163.437,43.174 163.437,37.885 C163.437,32.979 166.748,28.693 172.114,28.693 C173.709,28.693 175.193,29.364 176.252,30.081 L175.274,32.265" id="Fill-20" sketch:type="MSShapeGroup"></path>
        </g>
    </g>
</svg>
